icon-themes/sifr_svg/cmd/sc_insertrlm.svg

<svg viewBox="0 0 16 16" xmlns="http://www.w3.org/2000/svg"><path d="m9 1v7h1 2c1.104569 0 2-.8954305 2-2s-.895431-2-2-2h-2v-3zm-6 2v1h3v1h-2.5c-.8284271 0-1.5.6715729-1.5 1.5 0 .828427.6715729 1.5 1.5 1.5h3.5v-4c0-.5522847-.4477153-1-1-1zm7 2h2c.552285 0 1 .4477153 1 1s-.447715 1-1 1h-2zm-6.5 1h2.5v1h-2.5c-.2761424 0-.5-.2238576-.5-.5s.2238576-.5.5-.5zm7.5 3v1c0 .2653.0931.53058.28125.71875l.28125.28125h-10.5625v2h10.5625l-.28125.28125c-.18811.18818-.28129.45344-.28125.71875v1h1c.26529 0 .53057-.09304.71875-.28125l2-2 .28125-.28125v-.875l-.28125-.28125-2-2c-.18817-.18814-.45344-.28122-.71875-.28125z" fill="#555753"/></svg>

<svg xmlns="http://www.w3.org/2000/svg" viewBox="0 0 16 16">
  <path
     style="fill:#555753"
     d="M 9 1 L 9 8 L 10 8 L 12 8 C 13.104569 8 14 7.1045695 14 6 C 14 4.8954305 13.104569 4 12 4 L 10 4 L 10 1 L 9 1 z M 3 3 L 3 4 L 6 4 L 6 5 L 3.5 5 C 2.6715729 5 2 5.6715729 2 6.5 C 2 7.328427 2.6715729 8 3.5 8 L 7 8 L 7 4 C 7 3.4477153 6.5522847 3 6 3 L 3 3 z M 10 5 L 12 5 C 12.552285 5 13 5.4477153 13 6 C 13 6.5522847 12.552285 7 12 7 L 10 7 L 10 5 z M 3.5 6 L 6 6 L 6 7 L 3.5 7 C 3.2238576 7 3 6.7761424 3 6.5 C 3 6.2238576 3.2238576 6 3.5 6 z M 11 9 L 11 10 C 11 10.2653 11.0931 10.53058 11.28125 10.71875 L 11.5625 11 L 1 11 L 1 13 L 11.5625 13 L 11.28125 13.28125 C 11.09314 13.46943 10.99996 13.73469 11 14 L 11 15 L 12 15 C 12.26529 15 12.53057 14.90696 12.71875 14.71875 L 14.71875 12.71875 L 15 12.4375 L 15 11.5625 L 14.71875 11.28125 L 12.71875 9.28125 C 12.53058 9.09311 12.26531 9.00003 12 9 L 11 9 z "
     />
</svg>
